X:181
T: Feinslieb von Flandern
N: A0217
O: Europa, Mitteleuropa, Deutschland
N: Melodie aus Fragmenten hergestellt, die bei M. Franck, Fasc.
N: quodl. 1611 No. 4 vorkommen.
R: Romanze, Ballade, Lied
M: 4/4
L: 1/8
K: G
d2 | d2B2c2d2 | e3dc2
e2 | d2c2B2A2 | G4z2
d2 | d2B2c2d2 | e3dc2
e2 | d2c2B2A2 | G4z2
B2 | c2c2A2B2 | cBAGA2
A2 | BABcd2B2 | edcBA2A2 | G4z2

